suite-common/icons/assets/icons/pencil.svg

<svg xmlns="http://www.w3.org/2000/svg" xml:space="preserve" fill="none" viewBox="0 0 20 20">
  <path fill="#000" fill-rule="evenodd" d="M12.91 2.035a1.7 1.7 0 0 0-.4.129c-.216.101-.45.329-5.05 4.929-4.579 4.579-4.829 4.835-4.928 5.047a2 2 0 0 0-.137.461c-.019.142-.027.976-.02 2.076.014 1.96.011 1.918.183 2.244.093.177.344.428.521.521.326.172.284.169 2.244.183 1.12.007 1.933-.001 2.08-.021a1.7 1.7 0 0 0 .461-.139c.204-.099.558-.445 5.04-4.927 4.502-4.502 4.828-4.836 4.929-5.044q.188-.39.127-.838c-.058-.429-.045-.414-2.023-2.402-1.001-1.006-1.908-1.894-2.016-1.975a1.37 1.37 0 0 0-1.011-.244M15.717 7.6 15 8.317l-1.658-1.659L11.684 5l.716-.717.716-.717 1.659 1.659 1.658 1.658zm-5.159 5.158-3.375 3.375H3.867v-3.316l3.375-3.375 3.374-3.375 1.659 1.658 1.658 1.658z"/>
</svg>

<svg xmlns="http://www.w3.org/2000/svg" xml:space="preserve" fill="none" viewBox="0 0 20 20"><path d="M12.910 2.035 C 12.814 2.048,12.634 2.106,12.510 2.164 C 12.294 2.265,12.060 2.493,7.460 7.093 C 2.881 11.672,2.631 11.928,2.532 12.140 C 2.473 12.267,2.414 12.467,2.395 12.601 C 2.376 12.743,2.368 13.577,2.375 14.677 C 2.389 16.637,2.386 16.595,2.558 16.921 C 2.651 17.098,2.902 17.349,3.079 17.442 C 3.405 17.614,3.363 17.611,5.323 17.625 C 6.443 17.632,7.256 17.624,7.403 17.604 C 7.547 17.584,7.732 17.528,7.864 17.465 C 8.068 17.366,8.422 17.020,12.904 12.538 C 17.406 8.036,17.732 7.702,17.833 7.494 C 17.958 7.235,18.001 6.953,17.960 6.656 C 17.902 6.227,17.915 6.242,15.937 4.254 C 14.936 3.248,14.029 2.360,13.921 2.279 C 13.642 2.071,13.278 1.983,12.910 2.035 M15.717 7.600 L 15.000 8.317 13.342 6.658 L 11.684 5.000 12.400 4.283 L 13.116 3.566 14.775 5.225 L 16.433 6.883 15.717 7.600 M10.558 12.758 L 7.183 16.133 5.525 16.133 L 3.867 16.133 3.867 14.475 L 3.867 12.817 7.242 9.442 L 10.616 6.067 12.275 7.725 L 13.933 9.383 10.558 12.758 " stroke="none" fill-rule="evenodd" fill="black"></path></svg>
